img/svg/linkedin.svg

<svg width="16" height="16" viewBox="0 0 16 16" fill="none" xmlns="http://www.w3.org/2000/svg">
<path d="M4.62638 3.33351C4.62621 3.68713 4.48556 4.0262 4.23539 4.27613C3.98521 4.52605 3.64601 4.66636 3.29238 4.66618C2.93876 4.666 2.59969 4.52536 2.34977 4.27518C2.09985 4.02501 1.95954 3.6858 1.95972 3.33218C1.95989 2.97856 2.10054 2.63949 2.35071 2.38956C2.60089 2.13964 2.94009 1.99934 3.29372 1.99951C3.64734 1.99969 3.98641 2.14033 4.23633 2.39051C4.48625 2.64068 4.62656 2.97989 4.62638 3.33351ZM4.66638 5.65351H1.99972V14.0002H4.66638V5.65351ZM8.87972 5.65351H6.22638V14.0002H8.85305V9.62018C8.85305 7.18018 12.033 6.95351 12.033 9.62018V14.0002H14.6664V8.71351C14.6664 4.60018 9.95972 4.75351 8.85305 6.77351L8.87972 5.65351Z" fill="#111928"/>
</svg>

<?xml version="1.0" encoding="utf-8"?><svg width="16" height="16" xmlns="http://www.w3.org/2000/svg" viewBox="0 0 16 16"><path d="M4.626 3.334a1.333 1.333 0 1 1-2.666-.002 1.333 1.333 0 0 1 2.666.002Zm.04 2.32H2V14h2.666V5.654Zm4.214 0H6.226V14h2.627V9.62c0-2.44 3.18-2.666 3.18 0V14h2.633V8.714c0-4.114-4.706-3.96-5.813-1.94l.027-1.12Z"/></svg>
